!!!COM: Robert Schumann
!!!CNT: Deutsch
!!!TXO: Deutsch
!!!OTL: Berg' und Burgen schau'n herunter
!!!LYR: Heine
!!!OPR: Liederkreis
!!!OPS: Op.24
!!!ONM: No. 7
!!!ENC: Ben Fuhrman
!!!YOR: Schumann Lieder - Max Friedlaender, ed.,
!!!YOR: New York: C. F. Peters, Vol. 1
!!!ODT: 1840/
!!NB: Vocal melody and text only encoded.
!!NB: First instance of melodic material only encoded.
**kern	**silbe
*clefG2	*
*k[b-]	*
*M3/8	*
!!created: 6/7/06 9:25
!!proofed and posted: 9/8/06 9:25
!!edit time: 20 minutes
=5	=5
{4a	{Berg'
8a	und
=6	=6
4b-	Bur-
8a	-gen
=7	=7
(8.g	schau'n
16a)	|
8b-	her-
=8	=8
4b-	-un-
8a}	-ter}
=9	=9
8r	.
{8a	{in
8a	den
=10	=10
4a	spie-
8a-	-gel-
=11	=11
(8.g	-hel-
16an)	|
8bn	-len
=12	=12
4.cc}	Rhein,}
=13	=13
8r	.
{8cc	{und
8cc	mein
=14	=14
4cc	Schiff-
8e}	-chen}
=15	=15
8r	.
{8cc	{se-
8cc	-gelt
=16	=16
4cc	mun-
8g	-ter,
=17	=17
4cc	rings
8cc#	um-
=18	=18
4dd	-gla2nzt
8b-	von
=19	=19
(8.a	Son
16b-)	|
8f#	-nen-
=20	=20
4.g}	schein,}
=21	=21
8r	.
{8g	{rings
8g#	um-
=22	=22
4a	-gla2nzt
8f	von
=23	=23
(4g	Son-
16a)	|
16f	-nen
=24	=24
4.f}	-schein.}
!! rest to measure 29
=29	=29
{4a	{O-
8a	-ben
=30	=30
4b-	Lust,
8a	im
=31	=31
(8.g	Bu-
16a)	|
8b-	-sen
=32	=32
8b-	Tu2k-
8a}	-ken,}
8r	.
=33	=33
{[4a	{Strom,
16a]	|
16a	du
=34	=34
4a	bist
8a-	der
=35	=35
(8.g	Lieb-
16an)	|
8bn	-sten
=36	=36
4.cc}	Bild!}
=37	=37
8r	.
{8cc	{Die
8cc	kann
=38	=38
(8cc	auch
8d#)	|
8e	so
=39	=39
4cc	freund-
8cc	-lich
=40	=40
4cc	nik-
8g	-ken,
=41	=41
4cc	la2-
8cc#	-chelt
=42	=42
4dd	auch
8b-	so
=43	=43
(8.a	fromm-
16b-)	|
8f#	und
=44	=44
4.g}	mild.}
=45	=45
8r	.
{8g	{la2-
8g#	-chelt
=46	=46
4a	auch
8f	so
=47	=47
(4g	fromm
16a)	|
16f	und
=48	=48
4.f}	mild.}
==	==
*-	*-
